X: 31878
T: Payne's French Quadrill
R: jig
M: 6/8
K: Dmajor
|:A|Aff ced|A3 A2 B|A2 F A2 F|A2 G E2 E|
Aff ced|B3 BAG|FGA GEC|D3 D2:|
|:F|GEC A2 G|FAd f2 d|gec A2 F|GAB A2 F|
GEC A2 G|FAd f2 d|ceb a2 c|d3 d2:|
|:F|B3 d3|c3 ecA|Bdf gec|B3 A2 F|
B3 d3|c3 e2 c|d2 B c2 A|B3 B2:|

